X:61
T:74. Portsmouth
R:Hornpipe
M:4/4
L:1/8
K:Cmaj clef=treble
[||:"C"c3d edcB|"F"A4a4|"C"g2e2 "F"fedc|"G"d6G2|
"C"c3d edcB|"F"A4a4|"C"g2e2 "G"fede|1"C"c6 G2:|2"C"c6 g2|]
[||:"C"c'3d' e'd'c'b|"Am"c'2g2e2g2|"C"c'2e2 "F"fedc|"G"d6 G2|
"C"c3d edcB|"F"A4a4|"C"g2e2 "G"fede|1"C"c6g2:|2"C"c6g2|]

